X: 44
T: the GLENIFFER POLKA
C: Andrew Rankine 1958
R: polka
B: "The Complete Andrew Rankine Collection of Scottish Country Dance Tunes" p.50
Z: 2017 John Chambers <jc:trillian.mit.edu>
M: 2/4
L: 1/16
K: D
A2 |:\
"D"F>AB>c B2A2 | F>AB>c B2A2 | F>AB>c "Adim"B2A2 | "A7"G8 | E>FG>A c2B2 | E>FG>A c2B2 |
[1 g>ee>c c>AA>G | "D"F6 A2 :|[2 g>ee>c c>AA>F | "D"D6 A2 |]
|:\
"D"D>FF>A A>dd>f | f2d>A f>dA>F | D>FA>d f>d"Adim"A>F | "A7"G4- G4 | E>FG>A B>cc2 |
E>FG>A c4 |[1 E>FG>A c>BA>G | "D"F4- F2A2 :[2 E>FG>A c>BG>E | "D"D6 D2 |]
|:\
"D"F>AB>c B2A2 | F>AB>c B2A2 | F>AB>c "Adim"B2A2 | "A7"G8 | E>FG>A c2B2 | E>FG>A c2B2 |
[1 g>ee>c c>AA>G | "D"F6 A2 :|[2 g>ee>c c>AA>F | "D"D6 A2 |]
K: A
|:\
"A"E2e2 e^de2 | E2c2 c=c^c2 | E2e2 e^d"Edim"e2 | "E7"d8 | E2d2 dcd2 | E2B2 B^AB2 |
[1 E>GB>d f2e2 | "A"c8 :|[2 g>fe>d c2B2 | "A"A6 "_D.C."A2 |]
